Hatter-kde/actions/16/run-build-clean.svg

<svg xmlns="http://www.w3.org/2000/svg" viewBox="0 0 16 16">
  <defs id="defs3051">
    <style type="text/css" id="current-color-scheme">
      .ColorScheme-Text {
        color:#363636;
      }
      </style>
  </defs>
 <path 
     style="fill:currentColor;fill-opacity:1;stroke:none" 
     d="M 7 2 L 7 3.1015625 C 6.374 3.2305625 5.7790937 3.4790312 5.2460938 3.8320312 L 4.4648438 3.0507812 L 3.0507812 4.4648438 L 3.8320312 5.2460938 C 3.4800313 5.7790937 3.2334687 6.374 3.1054688 7 L 2 7 L 2 9 L 3.1015625 9 C 3.2305625 9.626 3.4790312 10.220906 3.8320312 10.753906 L 3.0507812 11.535156 L 4.4648438 12.949219 L 5.2460938 12.167969 C 5.7790938 12.519969 6.374 12.766531 7 12.894531 L 7 11.867188 C 6.29 11.685187 5.6428594 11.311109 5.1308594 10.787109 C 4.4058594 10.040109 4 9.0429531 4 8.0019531 C 4 6.9209531 4.4378906 5.8858125 5.2128906 5.1328125 C 5.9598906 4.4078125 6.959 4.0019531 8 4.0019531 C 9.081 4.0019531 10.116141 4.4398437 10.869141 5.2148438 C 11.594141 5.9618437 12 6.9609531 12 8.0019531 C 11.998 8.3399531 11.953188 8.6759531 11.867188 9.0019531 L 14 9.0019531 L 14 7.0019531 L 12.898438 7.0019531 C 12.769438 6.3759531 12.520969 5.7790938 12.167969 5.2460938 L 12.949219 4.4667969 L 11.535156 3.0527344 L 10.753906 3.8320312 C 10.220906 3.4800312 9.626 3.2334688 9 3.1054688 L 9 2.0019531 L 7 2 z M 7 6 L 7 10 L 10 8 L 7 6 z M 10 10 L 8 12 L 10 14 L 14 14 L 14 10 L 10 10 z M 10.599609 11 L 13 11 L 13 13 L 10.599609 13 L 9.5996094 12 L 10.599609 11 z "
     class="ColorScheme-Text"/>
</svg>

<?xml version="1.0" encoding="UTF-8"?>
<svg viewBox="0 0 16 16" xmlns="http://www.w3.org/2000/svg">
 <defs id="defs3051">
  <style id="current-color-scheme" type="text/css">.ColorScheme-Text {
        color:#363636;
      }</style>
 </defs>
 <path class="ColorScheme-Text" d="m7 2v1.1016c-0.626 0.129-1.2209 0.37747-1.7539 0.73047l-0.78125-0.78125-1.4141 1.4141 0.78125 0.78125c-0.352 0.533-0.59856 1.1279-0.72656 1.7539h-1.1055v2h1.1016c0.129 0.626 0.37747 1.2209 0.73047 1.7539l-0.78125 0.78125 1.4141 1.4141 0.78125-0.78125c0.533 0.352 1.1279 0.59856 1.7539 0.72656v-1.0273c-0.71-0.182-1.3571-0.55608-1.8691-1.0801-0.725-0.747-1.1309-1.7442-1.1309-2.7852 0-1.081 0.43789-2.1161 1.2129-2.8691 0.747-0.725 1.7461-1.1309 2.7871-1.1309 1.081 0 2.1161 0.43789 2.8691 1.2129 0.725 0.747 1.1309 1.7461 1.1309 2.7871-2e-3 0.338-0.046812 0.674-0.13281 1h2.1328v-2h-1.1016c-0.129-0.626-0.37747-1.2229-0.73047-1.7559l0.78125-0.7793-1.4141-1.4141-0.78125 0.7793c-0.533-0.352-1.1279-0.59856-1.7539-0.72656v-1.1035l-2-0.0019531zm0 4v4l3-2-3-2zm3 4-2 2 2 2h4v-4h-4zm0.59961 1h2.4004v2h-2.4004l-1-1 1-1z" fill="currentColor"/>
</svg>
